!!!COM: Robert Franz
!!!CNT: Deutscher
!!!TXO: Deutsche 
!!!OTL: Um Mitternacht
!!!OPS: Op. 16
!!!ONM: No. 6
!!!ONB: Original key: Db major
!!!LYR: W. Osterwald
!!!ENC: Brian Bice
!!!YOR: Vocal Album, G. Schirmer, Inc., 1907
!!!ODT: 1856/
!!NB: Vocal melody and text only encoded.
**kern	**silbe
*clefG2	*
*k[f#c#g#d#a#]	*
*M2/4	*
=3	=3
4r	.
8.r	.
{16d#	{Um
=4	=4
16.f#	Mit-
32f#	-ter
4f#	nacht
8r	.
=5	=5
(4b	ruht
8a#)	|
8g#	die
=6	=6
8.f#	gan-
16d#	-ze
(12e	Er-
12d#)	|
12c#	-de
=7	=7
4b}	nun;}
8.r	.
{16d#	{doch
=8	=8
8g#	heim-
16g#	-li-
16g#	-che,
8e	stil-
8g#	-le
=9	=9
8cc#	Lie-
8a#	-be
4f##	wacht
=10	=10
8g#	wann
24g#	ko2nn-
24g#	-te
24g#	die
8e	Lie-
8f#	-be
=11	=11
4.g#}	ruh'n?}
8r	.
=12	=12
4r	.
{8g#	{Darf
16g#	sie
16g#	am
=13	=13
8an	lieb-
8f#	-sten
(16dd#	Her-
16cc#)	|
16b	-zen
16a#	nicht
=14	=14
8g#	wei-
8b}	-len,}
{8a#	{muss
16a#	sie
16a#	auf
=15	=15
8b	Stur-
8g#	-mes
(16ee#	Flu2-
16dd#)	|
(16cc#	-geln
16b)	|
=16	=16
8a#	ei-
8cc#}	-len,}
{8cc#	{kann
8g#	nicht
=17	=17
8f##	ra-
16a#	-sten,
16a#	muss
8dd#	ja-
16a#	-gen
16a#	und
=18	=18
8g##	wa-
8b#}	-gen,}
{8e#	{jauch-
16a#	-zen
16cc#	und
=19	=19
4bn	kla-
8a#	-gen,
16g#	und
16g#	sie
=20	=20
8f#	wan-
16g#	-dert
16a#	ver-
8b	-stoh-
16cc#	-len
16cc#	und
=21	=21
[4d	sacht
8d];}	|}
16r	.
{16d#	{um
=22	=22
16.f#	Mit-
32f#	-ter-
4f#}	-nacht.}
8r	.
=24	=24
4r	.
8.r	.
{16d#	{Um
=25	=25
16.f#	Mit-
32f#	-ter-
4f#	-nacht
8b	beim
=26	=26
(4a#	Ster-
8b)	|
8cc#	-nen-
=27	=27
4b}	-glanz}
4r	.
=28	=28
8r	.
{16ee	{schwingt
16cc#	vom
16a#	La-
16b	-ger
16cc#	sich
16a#	em-
=29	=29
4f##}	-por}
8r	.
{8cc#	{zu
=30	=30
8b	heim-
16b	-li-
16b	-cher
8an	Lust,
8an	zum
=31	=31
8.g#	El-
16an	-fen-
8b	-tanz
8e	der
=32	=32
8f#	na2cht-
16f#	-li-
16f#	-che
8e	Gei-
8e	-ster-
=33	=33
4d#}	-chor.}
4r	.
=34	=34
4r	.
{8g#	{Nicht
16g#	der
16g#	Ge-
=35	=35
8an	-stor-
16g#	-be-
16f#	-nen
(16dd#	Schat-
16cc#)	|
16b	-ten
16a	und
=36	=36
8g#	Sche-
8b}	-men,}
{8a#	{die
16a#	um
16a#	ver-
=37	=37
8b	-lo-
16a#	-re-
16g#	-ne
(16e#	Her-
16d#)	|
16cc#	-zen
16b	sich
=38	=38
8a#	gra2-
8cc#}	-men,}
{8cc#	{nein,
16g#	die
16g#	le-
=39	=39
8a#	-ben-
16d#	-di-
16d#	-ge,
8dd#	lie-
16a#	-ben-
16a#	-de
=40	=40
8g##	See-
8b#}	-le}
{8e#	{sucht,
16a#	was
16cc#	ihr
=41	=41
4bn	feh-
8a#	-le,
16g#	sucht
16g#	und
=42	=42
8f#	fin-
16g#	-det,
16a#	und
8b	ju-
16cc#	-belt
16cc#	und
=43	=43
[4d#	lacht
8d#];}	|}
16r	.
{16d#	{um
=44	=44
16.f#	Mit-
32f#	-ter-
4f#}	-nacht.}
8r	.
=46	=46
4r	.
8.r	.
{16d#	{Um
=47	=47
16.f#	Mit-
32f#	-ter-
4f#	-nacht
8b	im
=48	=48
(4a#	hei-
8b)	|
8cc#	-ssen
=49	=49
4b}	Traum}
4r	.
=50	=50
8r	.
{16ee	{kann
16cc#	nicht
16a#	ruh'n
16b	die
16cc#	See-
16a#	-le
=51	=51
4f#}	mir,}
8r	.
{8cc#	{sie
=52	=52
8b	fliegt
16b	auf
16b	der
8an	Wol-
8an	-ken,
=53	=53
8g#	gold'-
8b	-nem
8ee}	Saum,}
{8dd#	{will
=54	=54
(16cc#	flie-
16b)	|
16a#	-gen,
16g#	mein
8f##	Kind,
8g#	zu
=55	=55
[4a#	dir.
8a#]}	|}
8r	.
=56	=56
4r	.
{8g#	{Oft
8g#	schon
=57	=57
8an	sind
16g#	sie,
16f#	die
(16dd#	ne-
16cc#)	|
16b	-cki-
16a#	-schen
=58	=58
8g#	Jun-
8b	-gen,
8a#	mei-
16a#	-ne
16a#	Ge-
=59	=59
8b	-dan-
16a#	-ken
16g#	zu
(16ee#	dir
16dd#)	|
(16cc#	ge-
16b)	|
=60	=60
8a#	-drun-
8cc#}	-gen,}
{8cc#	{um
16g#	mir
16g#	von
=61	=61
8f##	dei-
8a#	-nem
8dd#	ro-
16a#	-si-
16a#	-gen
=62	=62
8g##	Mun-
8b#	-de
8e#	himm-
16a#	-li-
16cc#	-sche
=63	=63
4bn	Kun-
8a#}	-de}
{24g#	{ku2s-
24g#	-send
24g#	zu
=64	=64
8f#	rau-
16g#	-ben
16a#	ver-
8b	-stoh-
16cc#	-len
16cc#	und
=65	=65
[4dd#	sacht
8dd#];}	|}
16r	.
{16d#	{um
=66	=66
16.f#	Mit-
32f#	-ter-
4f#}	-nacht.}
8r	.
*-	*-
